/* XPM */
static const char* app_icon[] = {
"64 64 70 1",
"  c None",
". c #15364A",
"+ c #204E68",
"* c #093D4F",
"# c #0488A6",
"@ c #01B1D6",
"% c #1F4C65",
"& c #0D2432",
"= c #286080",
"- c #03689C",
": c #08344C",
"; c #01B7DC",
"< c #2B6687",
"> c #046394",
"? c #183B51",
"/ c #265C7A",
"{ c #123042",
"~ c #0CAED5",
"A c #2A6485",
"B c #0D2331",
"C c #1B4259",
"D c #07B4DB",
"E c #2AA6D3",
"F c #102B3C",
"G c #03B6DB",
"H c #26AAD6",
"I c #0E8BAD",
"J c #21ACD7",
"K c #10ADD5",
"L c #1DA9D4",
"M c #168EB2",
"N c #377698",
"O c #336A87",
"P c #56AAD2",
"Q c #54A9D2",
"R c #3C86AD",
"S c #59ACD2",
"T c #52A8D2",
"U c #57ABD2",
"V c #4E9CC3",
"W c #0E2635",
"X c #173A4E",
"Y c #1C445B",
"Z c #50A6D2",
"a c #49A2D2",
"b c #07556D",
"c c #316682",
"d c #153548",
"e c #193F55",
"f c #1E4962",
"g c #22536F",
"h c #275D7C",
"i c #2C6789",
"j c #1A3F54",
"k c #4F9CC0",
"l c #397B9F",
"m c #083D50",
"n c #047E9F",
"o c #08334A",
"p c #0B1A25",
"q c #509CC0",
"r c #21516C",
"s c #153649",
"t c #2A6282",
"u c #346D8B",
"v c #367394",
"w c #1D455C",
"x c #074667",
"y c #235470",
"z c #1B435B",
"................................................................",
"................................................................",
"................................................................",
"................................................................",
"................................................................",
"................................................................",
"................................................................",
"................................................................",
".............................+*##*+.............................",
"........................@%&=-:;<<;:-=&%@........................",
"......................#>-?/{~ABCCBA~{/?->#......................",
"....................#DE/FC-GHIJKKJIHG-CF/ED#....................",
"..................@&:LMNOJ............JONML:&@..................",
".................#PQ~NHR................RHN~QP#SS...............",
"................TNUVWTXXXXXXXXXXXXXXXXXXXXTWVUYZSSS.............",
"...............abcdeXXXXXXXXXXXXXXXXXXXXXXXXedcfgSSS............",
"..............hb{ijXXXXXXXXXXXXXXXXXXXXXXXXXXji{XSSSS...........",
".............kYcilXXXXXXXXXXXXXXXXXXXXXXXXXXXXlXXXXSSS..........",
"............mnUdjXXXXXXXXXXopqrssrqpoXXXXXXXXXXXXXXSSS..........",
"...........XtuVeXXXXvwwvXxyz.+*##*+.zyxXXXXXXXXXXXXXSSS.........",
"...........kb@WXXXXv%&&=-:+;<o>XX>o<;+:q?XXXXXXXXXXXSSS.........",
".........../{YTXXXXw&&~AB;CXXXXXXXXXXC;DEFwvXXXXXXXXSSS.........",
"..........kGHDXXXXXw&~IJKLMNOPQXXXXXXXXRSA&%vXXXXXXXXXS.........",
"..........TUY%XXXXXv=AVWXPONMLYZaZYLMNObcd&&wXXXXXXXXXS.........",
".........@iefXXXXXXX-BghXXXXXXXXXXQPONMijkl&wXXXXXXXXXS.........",
".........%mVjXXXXXXx:;XaXXXXXXXXXXXXXXXvnopqvXXXXXXXXXS.........",
".........&UiXXXXXXXy+CXrsXXXXXXXXXXXXXXXtuvwXXXXXXXXXXS.........",
".........=cxXXXXXXoz;XXsrXXXXXXXXXXXXXXyzX.+XXXXXXXXXXS.........",
".........-@DXXXXXXp.<XXXaXXXX*#@@#*XXX%%XX&=XXXXXXXXXXS.........",
"........+:-:XXXXXXq+oXXXrsXX*@;;;;@*XzyXXXX<XXXXXXXXXXS.........",
"........*;>jXXXXXXr*>XXXsrXX#;;;;;;#?/XXXXXy{XXXXXXXXXS.........",
"........#<VlXXXXXXs#XXXXXaXX@;;;;;;~ABXXXXXCCXXXXXXXXXS.........",
"........#<VlXXXXXXs#XXXXXrsX@;;;;;DEFXXXXXX{yXXXXXXXXXS.........",
"........*;>jXXXXXXr*>XXXXsrX#;;;;GHIXXXXXXXX<XXXXXXXXXS.........",
"........+:-:XXXXXXq+oXXXXXaX*@;;;JK*XXXXXXXX=&XXXXXXXXS.........",
".........-@DXXXXXXp.<XXXXXrsX*#@LM*XXXXXXXXvNOvXXXXXXXS.........",
".........=cxXXXXXXoz;XXXXXsrXXX%%XXXXXXXXXv%PQ%vXXXXXXS.........",
".........&UiXXXXXXXy+CXXXXvRwvzyXXXXXXXXXXw&Sj&wXXXXXXS.........",
".........%mVjXXXXXXx:;XXXv%TUVtXXXXXXXW{XYNjZa&wXXXXXXS.........",
".........@iefXXXXXXXqDbXXw&UZkcdefghiihgfejkd&%vXXXXXXS.........",
"..........TUY%XXXXXX?s+<Xw&&lkl+YX{WXXXXXXXvwwvXXXXXXXS.........",
"..........kGHDXXXXXXXmnXXv%&&%vXXXXXXXXXXXXXXXXXXXXXXXS.........",
"..........X/{YTXXXXXXXXXXXvwwvXXXXXXXXXXXXXXXXXXXXXXXXS.........",
"..........Xkb@WXXXXXXXXXXXXXXXXXXXXXXXXXXXXXXXXXXXXXXXS.........",
"..........XXtuVeXXXXXXXXXXXXXXXXXXXXXXXXXXXXXXXXXXXXXXS.........",
".........SSSmnUdjXXXXXXXXXXXXXXXXXXXXXXXXXXXXXXXXXXXSSS.........",
".........SSSToYcilXXXXXXXXXXXXXXXXXXXXXXXXXXXXXXXXXXSSS.........",
"........ppSSSThb{XXXXXXXXXXXXXXXXXXXXXXXXXXXXXXXXXXSSS..........",
".......pppSSSTXaXXXXXXXXXXXXXXXXXXXXXXXXXXXXXXXXXXXSSS..........",
"......pppppSSSSXXXXXXXXXXXXXXXXXXXXXXXXXXXXXXXXXXSSSS...........",
"......ppppppSSSSSSXXXXXXXXXXXXXXXXXXXXXXXXXXXXXSSSSS............",
"......ppppp..SSSSSXXXXXXXXXXXXXXXXXXXXXXXXXXXXXSSSS.............",
"......pppp.....SSSSSSSSSSSSSSSSSSSSSSSSSSSSSSSSSS...............",
"......ppp.......................................................",
"................................................................",
"................................................................",
"................................................................",
"................................................................",
"................................................................",
"................................................................",
"................................................................",
"................................................................",
"................................................................",
"................................................................"
};
